public/figma-home/vector5.svg

<svg xmlns="http://www.w3.org/2000/svg" fill="none" overflow="visible" preserveAspectRatio="none" style="display:block" viewBox="0 0 20 15"><path fill="var(--fill-0, white)" fill-rule="evenodd" d="m7.172 8.834 2.83 1.935 2.728-1.882 6.115 6.033a1.7 1.7 0 0 1-.512.08H1.667c-.22 0-.43-.043-.623-.12zM20 3.876v9.457c0 .247-.054.481-.15.692l-5.994-5.914zM0 3.929l6.042 4.132-5.936 5.858A1.7 1.7 0 0 1 0 13.333zM18.333 0C19.253 0 20 .746 20 1.667v.586L9.998 9.148 0 2.31v-.643C0 .747.746 0 1.667 0z" clip-rule="evenodd"/></svg>

<svg preserveAspectRatio="none" width="100%" height="100%" overflow="visible" style="display: block;" viewBox="0 0 20 15" fill="none" xmlns="http://www.w3.org/2000/svg">
<path id="Vector" fill-rule="evenodd" clip-rule="evenodd" d="M7.172 8.834L10.002 10.769L12.73 8.887L18.845 14.92C18.6837 14.9727 18.513 14.9993 18.333 15H1.667C1.447 15 1.237 14.957 1.044 14.88L7.172 8.834ZM20 3.876V13.333C20 13.58 19.946 13.814 19.85 14.025L13.856 8.111L20 3.876ZM0 3.929L6.042 8.061L0.106 13.919C0.0364628 13.7314 0.000578992 13.533 0 13.333L0 3.929ZM18.333 0C19.253 0 20 0.746 20 1.667V2.253L9.998 9.148L0 2.31V1.667C0 0.747 0.746 0 1.667 0H18.333Z" fill="var(--fill-0, white)"/>
</svg>
